!!!OTL: Amei jinri ba lu shang
!!!ARE: Asia, China,ÿJiangxi, Ganxian
!! IV, 244
!!!SCT: C1682
!!!YEM: Copyright 1995, estate of Helmut Schaffrath.
**kern
*ICvox
*Ivox
*M2/4
*k[]
*C:
{8e
8ee
8dd
16a
16cc
=1
16dd
16cc
4.dd
=2
8dd
8gg
8ee
8r
=3
8e
8ee
16dd
16cc
8a
=4
16cc
16a
4.g}
=5
{8cc
16a
16g
16e
16g
8e
=6
8.dd
16gg
4ee
=7
8.dd
16gg
4ee
=8
16dd
16ee
16dd
16cc
16a
16cc
16g
16a
=9
16cc
16a
4.dd}
=10
{8e
8ee
8dd
8a
=11
16cc
16a
4g
16a
16cc
=12
16a
16g
16e
16g
4e}
=13
{8e
8ee
8dd
16a
16cc
=14
16dd
16cc
4dd
16a
16cc
=15
16g
16a
16cc
16a
4cc
=16
16a
16cc
8g
8a
8dd
=17
8cc
8a
4cc}
==
!!!AGN: Xiaodiao, Chage, Shuzhuang
!!!AMT: simple duple
!!!AIN: vox
!!!EED: Helmut Schaffrath
!!!EEV: 1.0
*-
